icons/bus-11.svg

<?xml version="1.0" encoding="utf-8"?>
<!-- Generator: Adobe Illustrator 19.2.1, SVG Export Plug-In . SVG Version: 6.00 Build 0)  -->
<!DOCTYPE svg PUBLIC "-//W3C//DTD SVG 1.1//EN" "http://www.w3.org/Graphics/SVG/1.1/DTD/svg11.dtd">
<svg version="1.1"
	 id="svg4764" inkscape:version="0.91+devel+osxmenu r12911" sodipodi:docname="bus-11.svg" xmlns:cc="http://creativecommons.org/ns#" xmlns:dc="http://purl.org/dc/elements/1.1/" xmlns:inkscape="http://www.inkscape.org/namespaces/inkscape" xmlns:rdf="http://www.w3.org/1999/02/22-rdf-syntax-ns#" xmlns:sodipodi="http://sodipodi.sourceforge.net/DTD/sodipodi-0.dtd" xmlns:svg="http://www.w3.org/2000/svg"
	 xmlns="http://www.w3.org/2000/svg" xmlns:xlink="http://www.w3.org/1999/xlink" x="0px" y="0px" width="11px" height="11px"
	 viewBox="0 0 11 11" style="enable-background:new 0 0 11 11;" xml:space="preserve">
<path id="path8043" inkscape:connector-curvature="0" d="M3,0C2,0,1,0.5312,1,2v4v3.5c0,0,0,0.5,0.5,0.5L2,10.0156V10.5
	c0,0,0,0.5,0.5,0.5H3c0,0,0.5,0,0.5-0.5v-0.4844L7.5,10v0.5c0,0,0,0.5,0.5,0.5h0.5C9,11,9,10.5,9,10.5v-0.4844L9.5,10
	c0,0,0.5,0,0.5-0.5V6V2c0-1.5-1-2-2-2H3z M3.75,1h3.5C7.3885,1,7.5,1.1115,7.5,1.25S7.3885,1.5,7.25,1.5h-3.5
	C3.6115,1.5,3.5,1.3885,3.5,1.25S3.6115,1,3.75,1z M3,2h5c1,0,1,1,1,1v2c0,0,0,1-1,1H3C2,6,2,5,2,5V3C2,3,2,2,3,2z M2.75,7.5
	c0.4142,0,0.75,0.3358,0.75,0.75C3.5,8.6642,3.1642,9,2.75,9S2,8.6642,2,8.25C2,7.8358,2.3358,7.5,2.75,7.5z M8.25,7.5
	C8.6642,7.5,9,7.8358,9,8.25C9,8.6642,8.6642,9,8.25,9C7.8358,9,7.5,8.6642,7.5,8.25C7.5,7.8358,7.8358,7.5,8.25,7.5z"/>
</svg>

<?xml version="1.0" encoding="UTF-8" standalone="no"?>
<!-- Created with Inkscape (http://www.inkscape.org/) -->

<svg
   xmlns:dc="http://purl.org/dc/elements/1.1/"
   xmlns:cc="http://creativecommons.org/ns#"
   xmlns:rdf="http://www.w3.org/1999/02/22-rdf-syntax-ns#"
   xmlns:svg="http://www.w3.org/2000/svg"
   xmlns="http://www.w3.org/2000/svg"
   xmlns:sodipodi="http://sodipodi.sourceforge.net/DTD/sodipodi-0.dtd"
   xmlns:inkscape="http://www.inkscape.org/namespaces/inkscape"
   version="1.1"
   width="11"
   height="11"
   id="svg4764"
   inkscape:version="0.91+devel+osxmenu r12911"
   sodipodi:docname="bus-11.svg"
   viewBox="0 0 11 11">
  <sodipodi:namedview
     pagecolor="#ffffff"
     bordercolor="#666666"
     borderopacity="1"
     objecttolerance="10"
     gridtolerance="10"
     guidetolerance="10"
     inkscape:pageopacity="0"
     inkscape:pageshadow="2"
     inkscape:window-width="881"
     inkscape:window-height="713"
     id="namedview3346"
     inkscape:document-units="px"
     showgrid="false"
     inkscape:zoom="16"
     inkscape:cx="6.7930461"
     inkscape:cy="4.5017653"
     inkscape:current-layer="svg4764"
     inkscape:snap-bbox="true"
     inkscape:bbox-paths="true"
     inkscape:bbox-nodes="true"
     inkscape:snap-bbox-edge-midpoints="true"
     inkscape:snap-bbox-midpoints="true"
     inkscape:object-paths="true"
     inkscape:snap-intersection-paths="true"
     inkscape:object-nodes="true"
     inkscape:snap-smooth-nodes="true"
     inkscape:window-x="19"
     inkscape:window-y="4"
     inkscape:window-maximized="0">
    <inkscape:grid
       type="xygrid"
       id="grid4133"
       spacingx="0.5"
       spacingy="0.5"
       empspacing="2"
       color="#ff0018"
       opacity="0.1254902" />
  </sodipodi:namedview>
  <defs
     id="defs4766" />
  <metadata
     id="metadata4769">
    <rdf:RDF>
      <cc:Work
         rdf:about="">
        <dc:format>image/svg+xml</dc:format>
        <dc:type
           rdf:resource="http://purl.org/dc/dcmitype/StillImage" />
        <dc:title />
      </cc:Work>
    </rdf:RDF>
  </metadata>
  <path
     style="opacity:1;fill:#000000;fill-opacity:1;stroke:none;stroke-width:1;stroke-linecap:round;stroke-linejoin:miter;stroke-miterlimit:4;stroke-dasharray:none;stroke-dashoffset:0;stroke-opacity:1"
     d="M 3,0 C 2,0 1,0.53125 1,2 l 0,4 0,3.5 c 0,0 0,0.5 0.5,0.5 l 0.5,0.01563 0,0.484375 c 0,0 0,0.5 0.5,0.5 l 0.5,0 c 0,0 0.5,0 0.5,-0.5 L 3.5,10.01563 7.5,10 l 0,0.5 c 0,0 0,0.5 0.5,0.5 l 0.5,0 C 9,11.000005 9,10.5 9,10.5 L 9,10.01563 9.5,10 c 0,0 0.5,0 0.5,-0.5 L 10,6 10,2 C 10,0.5 9,0 8,0 L 3,0 Z m 0.75,1 3.5,0 C 7.3885,1 7.5,1.1115 7.5,1.25 7.5,1.3885 7.3885,1.5 7.25,1.5 l -3.5,0 C 3.6115,1.5 3.5,1.3885 3.5,1.25 3.5,1.1115 3.6115,1 3.75,1 Z M 3,2 8,2 C 9,2 9,3 9,3 L 9,5 C 9,5 9,6 8,6 L 3,6 C 2,6 2,5 2,5 L 2,3 C 2,3 2,2 3,2 Z M 2.75,7.5 A 0.75,0.75 0 0 1 3.5,8.25 0.75,0.75 0 0 1 2.75,9 0.75,0.75 0 0 1 2,8.25 0.75,0.75 0 0 1 2.75,7.5 Z m 5.5,0 A 0.75,0.75 0 0 1 9,8.25 0.75,0.75 0 0 1 8.25,9 0.75,0.75 0 0 1 7.5,8.25 0.75,0.75 0 0 1 8.25,7.5 Z"
     id="path8043"
     inkscape:connector-curvature="0" />
</svg>
